svgs/sharp-light/volume-off.svg

<svg xmlns="http://www.w3.org/2000/svg" viewBox="0 0 320 512"><!--! Font Awesome Pro 6.6.0 by @fontawesome - https://fontawesome.com License - https://fontawesome.com/license (Commercial License) Copyright 2024 Fonticons, Inc. --><path d="M140.2 320l9.1 8.1L284.2 448l3.8 0 0-384-3.8 0L149.3 183.9l-9.1 8.1L128 192l-96 0 0 128 96 0 12.2 0zM32 352L0 352l0-32L0 192l0-32 32 0 96 0L272 32l16 0 32 0 0 32 0 384 0 32-32 0-16 0L128 352l-96 0z"/></svg>

<svg xmlns="http://www.w3.org/2000/svg" viewBox="0 0 320 512"><!--! Font Awesome Pro 6.4.0 by @fontawesome - https://fontawesome.com License - https://fontawesome.com/license (Commercial License) Copyright 2023 Fonticons, Inc. --><path d="M140.2 320l9.1 8.1L284.2 448H288V64h-3.8L149.3 183.9l-9.1 8.1H128 32V320h96 12.2zM32 352H0V320 192 160H32h96L272 32h16 32V64 448v32H288 272L128 352H32z"/></svg>
